icons/1_Primary/Windscribe.svg

<svg xmlns="http://www.w3.org/2000/svg" width="1024" height="1024" fill="none">
   <g clip-path="url(#a)">
      <path fill="#54688C" d="M512 1024c282.77 0 512-229.23 512-512S794.77 0 512 0 0 229.23 0 512s229.23 512 512 512Z"/>
      <path fill="#fff" d="M724.09 376.15c-7.45-18-14.75-36.05-22.29-54C638.56 296 575.23 270.09 512 243.94c-63.23 26.15-126.56 52.06-189.79 78.21-7.54 17.95-14.84 36-22.29 54A150974.22 150974.22 0 0 1 244 512c26.073 63.334 52.15 126.667 78.23 190 63.267 26 126.523 52.027 189.77 78.08 63.28-26 126.537-52.026 189.77-78.08 26.113-63.333 52.19-126.666 78.23-190a346210.84 346210.84 0 0 0-55.91-135.85ZM512 742.84c-54.58-22.273-109.147-44.58-163.7-66.92a124032.333 124032.333 0 0 1-67-163.94c22.34-54.6 44.673-109.2 67-163.8 54.4-22.2 108.787-44.433 163.16-66.7a1.127 1.127 0 0 1 1.2 0c54.393 22.22 108.78 44.454 163.16 66.7a251164.364 251164.364 0 0 1 67 163.8 379570.122 379570.122 0 0 1-67 163.94C621.14 698.2 512 742.84 512 742.84Zm.12-186.31a.225.225 0 0 1-.11.028.225.225 0 0 1-.11-.028 516626.878 516626.878 0 0 0-52.29 52.64c-10.3 10.17-25 14.61-39.25 14.82h-42.61V400.43h52.56v163.56c17.2-17.333 34.42-34.64 51.66-51.92 9.947-10 19.917-20 29.91-30l.1-.1.1.1c10 10 19.97 20 29.91 30A22381.955 22381.955 0 0 1 593.67 564c.06-54.52.06-109.04 0-163.56h52.56V624h-42.61c-14.22-.21-28.95-4.65-39.25-14.82-17.46-17.513-34.89-35.06-52.29-52.64m200.75-44.85.05.13h-3.38c-4 .09-8.06 0-12.09 0h-43.28V392.6h-63.69l-2.29 2.3L576 407.06c-5.79 5.79-11.78 11.77-17.66 17.68L556 427v76.95h-11c-9.21-9.28-18.42-18.51-27.35-27.47L512.1 471l-.12-.12-.1.1-5.54 5.56c-8.93 9-18.14 18.19-27.35 27.47H468V427l-2.29-2.3c-5.88-5.9-11.87-11.89-17.66-17.68l-12.15-12.15-2.29-2.3H369.9v119.22h-43.28c-4 0-8.07.09-12.09 0h-3.41l.05-.13h-.05c19.88-47.006 39.7-94.046 59.46-141.12 46.787-19.746 93.593-39.46 140.42-59.14a1.847 1.847 0 0 1 2 0c46.807 19.734 93.627 39.454 140.46 59.16 19.813 47.047 39.633 94.087 59.46 141.12l-.09.01Z"/>
   </g>
   <defs>
      <clipPath id="a">
         <path fill="#fff" d="M0 0h1024v1024H0z"/>
      </clipPath>
   </defs>
</svg>

<svg width="1024" height="1024" viewBox="0 0 1024 1024" fill="none" xmlns="http://www.w3.org/2000/svg">
<g clip-path="url(#clip0_2_3939)">
<path d="M512 1024C794.77 1024 1024 794.77 1024 512C1024 229.23 794.77 0 512 0C229.23 0 0 229.23 0 512C0 794.77 229.23 1024 512 1024Z" fill="#54688C"/>
<path d="M724.09 376.15C716.64 358.15 709.34 340.1 701.8 322.15C638.56 296 575.23 270.09 512 243.94C448.77 270.09 385.44 296 322.21 322.15C314.67 340.1 307.37 358.15 299.92 376.15C281.307 421.43 262.667 466.714 244 512C270.073 575.334 296.15 638.667 322.23 702C385.497 728 448.753 754.027 512 780.08C575.28 754.08 638.537 728.054 701.77 702C727.883 638.667 753.96 575.334 780 512C761.373 466.714 742.737 421.43 724.09 376.15ZM512 742.84C457.42 720.567 402.853 698.26 348.3 675.92C325.913 621.254 303.58 566.607 281.3 511.98C303.64 457.38 325.973 402.78 348.3 348.18C402.7 325.98 457.087 303.747 511.46 281.48C511.639 281.367 511.848 281.306 512.06 281.306C512.272 281.306 512.481 281.367 512.66 281.48C567.053 303.7 621.44 325.934 675.82 348.18C698.173 402.774 720.507 457.374 742.82 511.98C720.493 566.647 698.16 621.294 675.82 675.92C621.14 698.2 512 742.84 512 742.84ZM512.12 556.53C512.086 556.549 512.048 556.558 512.01 556.558C511.972 556.558 511.934 556.549 511.9 556.53C494.467 574.077 477.037 591.624 459.61 609.17C449.31 619.34 434.61 623.78 420.36 623.99H377.75V400.43H430.31V563.99C447.51 546.657 464.73 529.35 481.97 512.07C491.917 502.07 501.887 492.07 511.88 482.07L511.98 481.97L512.08 482.07C522.08 492.07 532.05 502.07 541.99 512.07C559.25 529.357 576.477 546.667 593.67 564C593.73 509.48 593.73 454.96 593.67 400.44H646.23V624H603.62C589.4 623.79 574.67 619.35 564.37 609.18C546.91 591.667 529.48 574.12 512.08 556.54M712.83 511.69L712.88 511.82H709.5C705.5 511.91 701.44 511.82 697.41 511.82H654.13V392.6H590.44L588.15 394.9L576 407.06C570.21 412.85 564.22 418.83 558.34 424.74L556 427V503.95H545C535.79 494.67 526.58 485.44 517.65 476.48L512.1 471L511.98 470.88L511.88 470.98L506.34 476.54C497.41 485.54 488.2 494.73 478.99 504.01H468V427L465.71 424.7C459.83 418.8 453.84 412.81 448.05 407.02L435.9 394.87L433.61 392.57H369.9V511.79H326.62C322.62 511.79 318.55 511.88 314.53 511.79H311.12L311.17 511.66H311.12C331 464.654 350.82 417.614 370.58 370.54C417.367 350.794 464.173 331.08 511 311.4C511.298 311.208 511.645 311.105 512 311.105C512.355 311.105 512.702 311.208 513 311.4C559.807 331.134 606.627 350.854 653.46 370.56C673.273 417.607 693.093 464.647 712.92 511.68L712.83 511.69Z" fill="white"/>
</g>
<defs>
<clipPath id="clip0_2_3939">
<rect width="1024" height="1024" fill="white"/>
</clipPath>
</defs>
</svg>
